;FLAVOR:Marlin
;TIME:10003
;Filament used: 7.99445m
;Layer height: 0.2
;MINX:54
;MINY:59
;MINZ:0.2
;MAXX:166
;MAXY:161
;MAXZ:14
;Generated with Cura_SteamEngine 5.0.0
M140 S60
M105
M190 S60
M104 S200
M105
M109 S200
M82 ;absolute extrusion mode
; Ender 3 Custom Start G-code
G92 E0 ; Reset Extruder
G28 ; Home all axes
G1 Z2.0 F3000 ; Move Z Axis up little to prevent scratching of Heat Bed
G1 X0.1 Y20 Z0.3 F5000.0 ; Move to start position
G1 X0.1 Y200.0 Z0.3 F1500.0 E15 ; Draw the first line
G1 X0.4 Y200.0 Z0.3 F5000.0 ; Move to side a little
G1 X0.4 Y20 Z0.3 F1500.0 E30 ; Draw the second line
G92 E0 ; Reset Extruder
G1 Z2.0 F3000 ; Move Z Axis up little to prevent scratching of Heat Bed
G1 X5 Y20 Z0.3 F5000.0 ; Move over to prevent blob squish
G92 E0
G92 E0
G1 F1500 E-6.5
;LAYER_COUNT:70
;LAYER:0
M107
G0 F6000 X57.198 Y62.264 Z0.2
G0 X54.001 Y70.525
;TYPE:SKIRT
G1 F1500 E0
G1 F1200 X54.01 Y69.86 E0.02212
G1 X54.063 Y68.924 E0.0533
G1 X54.195 Y67.995 E0.08451
G1 X54.406 Y67.081 E0.11571
G1 X54.694 Y66.189 E0.14689
G1 X55.057 Y65.324 E0.17809
G1 X55.492 Y64.493 E0.20928
G1 X55.996 Y63.703 E0.24045
G1 X56.566 Y62.958 E0.27165
G1 X57.198 Y62.264 E0.30287
G1 X57.886 Y61.627 E0.33405
G1 X58.626 Y61.051 E0.36524
G1 X59.412 Y60.539 E0.39644
G1 X60.239 Y60.097 E0.42763
G1 X61.101 Y59.727 E0.45883
G1 X61.991 Y59.431 E0.49003
G1 X62.903 Y59.213 E0.52122
G1 X63.83 Y59.072 E0.5524
G1 X64.701 Y59.013 E0.58144
G1 X65.33 Y59 E0.60236
G1 X154.293 Y59 E3.56128
G1 X155.149 Y59.011 E3.58976
G1 X156.085 Y59.065 E3.62094
G1 X157.013 Y59.197 E3.65212
G1 X157.927 Y59.409 E3.68332
G1 X158.819 Y59.698 E3.71451
G1 X159.684 Y60.061 E3.74571
G1 X160.514 Y60.497 E3.77689
G1 X161.305 Y61.002 E3.80811
G1 X162.049 Y61.573 E3.8393
G1 X162.742 Y62.205 E3.8705
G1 X163.379 Y62.893 E3.90168
G1 X163.954 Y63.634 E3.93288
G1 X164.465 Y64.42 E3.96406
G1 X164.907 Y65.248 E3.99528
G1 X165.276 Y66.11 E4.02646
G1 X165.571 Y67 E4.05765
G1 X165.789 Y67.912 E4.08884
G1 X165.929 Y68.84 E4.12005
G1 X165.987 Y69.701 E4.14875
G1 X166 Y70.33 E4.16968
G1 X165.999 Y149.4 E6.79956
G1 X165.99 Y150.127 E6.82374
G1 X165.939 Y151.064 E6.85495
G1 X165.807 Y151.992 E6.88612
G1 X165.598 Y152.906 E6.91731
G1 X165.311 Y153.799 E6.94851
G1 X164.949 Y154.665 E6.97973
G1 X164.515 Y155.496 E7.01091
G1 X164.011 Y156.287 E7.0421
G1 X163.442 Y157.032 E7.07328
G1 X162.811 Y157.727 E7.1045
G1 X162.124 Y158.365 E7.13569
G1 X161.385 Y158.942 E7.16687
G1 X160.599 Y159.454 E7.19807
G1 X159.773 Y159.897 E7.22924
G1 X158.911 Y160.269 E7.26047
G1 X158.022 Y160.565 E7.29163
G1 X157.11 Y160.785 E7.32284
G1 X156.183 Y160.926 E7.35402
G1 X155.299 Y160.987 E7.3835
G1 X154.67 Y161 E7.40442
G1 X65.565 Y160.999 E10.36807
G1 X64.867 Y160.99 E10.39128
G1 X63.931 Y160.938 E10.42246
G1 X63.002 Y160.806 E10.45367
G1 X62.088 Y160.596 E10.48486
G1 X61.195 Y160.309 E10.51606
G1 X60.33 Y159.946 E10.54726
G1 X59.499 Y159.512 E10.57844
G1 X58.708 Y159.008 E10.60964
G1 X57.963 Y158.438 E10.64084
G1 X57.269 Y157.807 E10.67204
G1 X56.632 Y157.12 E10.7032
G1 X56.055 Y156.38 E10.73441
G1 X55.543 Y155.594 E10.76561
G1 X55.1 Y154.767 E10.79681
G1 X54.729 Y153.906 E10.82799
G1 X54.433 Y153.016 E10.85919
G1 X54.214 Y152.104 E10.89038
G1 X54.073 Y151.177 E10.92157
G1 X54.013 Y150.288 E10.95121
G1 X54 Y149.658 E10.97216
G1 X54.001 Y70.525 E13.60414
G0 F6000 X54.401 Y70.531
G1 F1200 X54.41 Y69.866 E13.62626
G1 X54.462 Y68.946 E13.65691
G1 X54.594 Y68.035 E13.68752
G1 X54.805 Y67.139 E13.71814
G1 X55.092 Y66.264 E13.74877
G1 X55.455 Y65.418 E13.77939
G1 X55.889 Y64.606 E13.81001
G1 X56.392 Y63.835 E13.84063
G1 X56.961 Y63.111 E13.87125
G1 X57.589 Y62.439 E13.90185
G1 X58.274 Y61.823 E13.93249
G1 X59.01 Y61.27 E13.96311
G1 X59.791 Y60.782 E13.99374
G1 X60.611 Y60.364 E14.02435
G1 X61.465 Y60.019 E14.05498
G1 X62.345 Y59.749 E14.0856
G1 X63.245 Y59.557 E14.11621
G1 X64.159 Y59.443 E14.14684
G1 X64.712 Y59.413 E14.16526
G1 X65.33 Y59.4 E14.18582
G1 X154.293 Y59.4 E17.14474
G1 X155.143 Y59.411 E17.17302
G1 X156.062 Y59.464 E17.20363
G1 X156.973 Y59.597 E17.23425
G1 X157.869 Y59.808 E17.26487
G1 X158.743 Y60.096 E17.29548
G1 X159.59 Y60.459 E17.32613
G1 X160.401 Y60.894 E17.35674
G1 X161.171 Y61.398 E17.38734
G1 X161.895 Y61.967 E17.41797
G1 X162.567 Y62.597 E17.44861
G1 X163.182 Y63.282 E17.47923
G1 X163.735 Y64.018 E17.50985
G1 X164.222 Y64.799 E17.54046
G1 X164.639 Y65.62 E17.57109
G1 X164.984 Y66.474 E17.60172
G1 X165.253 Y67.354 E17.63233
G1 X165.445 Y68.255 E17.66297
G1 X165.558 Y69.168 E17.69356
G1 X165.596 Y70.032 E17.72233
G1 X165.599 Y149.395 E20.36195
G1 X165.59 Y150.122 E20.38613
G1 X165.539 Y151.041 E20.41675
G1 X165.408 Y151.953 E20.44739
G1 X165.198 Y152.849 E20.478
G1 X164.912 Y153.724 E20.50862
G1 X164.551 Y154.571 E20.53924
G1 X164.117 Y155.383 E20.56987
G1 X163.615 Y156.155 E20.60049
G1 X163.047 Y156.88 E20.63113
G1 X162.419 Y157.553 E20.66174
G1 X161.735 Y158.169 E20.69236
G1 X161 Y158.723 E20.72297
G1 X160.22 Y159.212 E20.75359
G1 X159.4 Y159.631 E20.78422
G1 X158.547 Y159.977 E20.81483
G1 X157.667 Y160.248 E20.84546
G1 X156.767 Y160.441 E20.87607
G1 X155.853 Y160.556 E20.90671
G1 X155.288 Y160.587 E20.92553
G1 X154.67 Y160.6 E20.94609
G1 X65.57 Y160.599 E23.90957
G1 X64.872 Y160.59 E23.93279
G1 X63.953 Y160.538 E23.9634
G1 X63.042 Y160.407 E23.99401
G1 X62.146 Y160.197 E24.02462
G1 X61.271 Y159.91 E24.05525
G1 X60.424 Y159.548 E24.08589
G1 X59.612 Y159.114 E24.11651
G1 X58.841 Y158.612 E24.14711
G1 X58.116 Y158.044 E24.17774
G1 X57.443 Y157.415 E24.20838
G1 X56.828 Y156.731 E24.23898
G1 X56.274 Y155.996 E24.26959
G1 X55.786 Y155.215 E24.30022
G1 X55.367 Y154.395 E24.33085
G1 X55.021 Y153.542 E24.36146
G1 X54.751 Y152.662 E24.39208
G1 X54.558 Y151.761 E24.42272
G1 X54.444 Y150.848 E24.45333
G1 X54.413 Y150.277 E24.47235
G1 X54.4 Y149.658 E24.49294
G1 X54.401 Y70.531 E27.12471
G0 F6000 X54.801 Y70.536
G1 F1200 X54.81 Y69.871 E27.14683
G1 X54.862 Y68.969 E27.17688
G1 X54.994 Y68.076 E27.20691
G1 X55.204 Y67.198 E27.23693
G1 X55.491 Y66.341 E27.26699
G1 X55.853 Y65.514 E27.29702
G1 X56.286 Y64.722 E27.32704
G1 X56.788 Y63.971 E27.35709
G1 X57.355 Y63.267 E27.38715
G1 X57.981 Y62.617 E27.41717
G1 X58.662 Y62.024 E27.4472
G1 X59.394 Y61.494 E27.47726
G1 X60.169 Y61.031 E27.50728
G1 X60.982 Y60.638 E27.53732
G1 X61.827 Y60.318 E27.56737
G1 X62.696 Y60.075 E27.59738
G1 X63.584 Y59.909 E27.62743
G1 X64.723 Y59.813 E27.66545
G1 X65.33 Y59.8 E27.68564
G1 X154.293 Y59.8 E30.64456
G1 X155.137 Y59.811 E30.67264
G1 X156.039 Y59.864 E30.70269
G1 X156.932 Y59.996 E30.73271
G1 X157.81 Y60.207 E30.76275
G1 X158.666 Y60.495 E30.79279
G1 X159.493 Y60.857 E30.82281
G1 X160.285 Y61.292 E30.85287
G1 X161.036 Y61.794 E30.88291
G1 X161.739 Y62.361 E30.91295
G1 X162.389 Y62.988 E30.94299
G1 X162.981 Y63.67 E30.97302
G1 X163.511 Y64.401 E31.00306
G1 X163.973 Y65.177 E31.03309
G1 X164.366 Y65.99 E31.06313
G1 X164.684 Y66.835 E31.09316
G1 X164.927 Y67.705 E31.1232
G1 X165.092 Y68.593 E31.15324
G1 X165.187 Y69.723 E31.19096
G1 X165.2 Y70.33 E31.21115
G1 X165.199 Y149.39 E33.8407
G1 X165.19 Y150.117 E33.86488
G1 X165.139 Y151.019 E33.89493
G1 X165.008 Y151.913 E33.92498
G1 X164.799 Y152.791 E33.955
G1 X164.513 Y153.648 E33.98505
G1 X164.152 Y154.476 E34.01509
G1 X163.72 Y155.268 E34.0451
G1 X163.219 Y156.02 E34.07515
G1 X162.653 Y156.724 E34.1052
G1 X162.028 Y157.375 E34.13521
G1 X161.347 Y157.969 E34.16527
G1 X160.616 Y158.5 E34.19532
G1 X159.842 Y158.964 E34.22533
G1 X159.029 Y159.358 E34.25538
G1 X158.185 Y159.678 E34.2854
G1 X157.315 Y159.923 E34.31546
G1 X156.428 Y160.089 E34.34548
G1 X155.277 Y160.187 E34.3839
G1 X154.67 Y160.2 E34.40409
G1 X65.575 Y160.199 E37.3674
G1 X64.877 Y160.19 E37.39062
G1 X63.976 Y160.139 E37.42064
G1 X63.082 Y160.007 E37.45069
G1 X62.204 Y159.798 E37.48071
G1 X61.347 Y159.511 E37.51077
G1 X60.52 Y159.15 E37.54078
G1 X59.727 Y158.717 E37.57084
G1 X58.976 Y158.216 E37.60086
G1 X58.272 Y157.65 E37.63091
G1 X57.621 Y157.024 E37.66095
G1 X57.028 Y156.343 E37.69098
G1 X56.498 Y155.612 E37.72101
G1 X56.034 Y154.837 E37.75105
G1 X55.64 Y154.024 E37.7811
G1 X55.32 Y153.18 E37.81112
G1 X55.076 Y152.31 E37.84118
G1 X54.91 Y151.422 E37.87122
G1 X54.813 Y150.267 E37.90977
G1 X54.8 Y149.658 E37.93003
G1 X54.801 Y70.536 E40.56164
G1 F1500 E34.06164
;MESH:RC-Timer-4.stl
G0 F6000 X83.373 Y93.582
G0 X83.442 Y94.519
G0 X83.576 Y95.307
G0 X83.93 Y96.003
G0 X84.497 Y96.57
G0 X85.21 Y96.933
G0 X85.85 Y97.034
G0 X86.892 Y96.949
G1 F1500 E40.56164
G0 F6000 X86.707 Y96.584
;TYPE:WALL-OUTER
G1 F1200 X86.665 Y96.596 E40.5631
G1 X86.011 Y96.701 E40.58513
G1 X85.968 Y96.699 E40.58656
G1 X85.332 Y96.599 E40.60797
G1 X85.291 Y96.584 E40.60942
G1 X84.711 Y96.287 E40.6311
G1 X84.681 Y96.262 E40.63239
G1 X84.228 Y95.808 E40.65373
G1 X84.201 Y95.768 E40.65533
G1 X83.917 Y95.21 E40.67616
G1 X83.904 Y95.165 E40.67771
G1 X83.802 Y94.547 E40.69855
G1 X83.802 Y94.484 E40.70064
G1 X83.9 Y93.836 E40.72244
G1 X83.916 Y93.791 E40.72403
G1 X84.203 Y93.23 E40.74499
G1 X84.231 Y93.194 E40.7465
G1 X84.676 Y92.743 E40.76758
G1 X84.717 Y92.714 E40.76925
G1 X85.284 Y92.419 E40.79051
G1 X85.333 Y92.404 E40.79221
G1 X85.968 Y92.3 E40.81361
G1 X86.016 Y92.302 E40.81521
G1 X86.674 Y92.402 E40.83735
G1 X86.709 Y92.416 E40.8386
G1 X87.28 Y92.708 E40.85993
G1 X87.319 Y92.738 E40.86157
G1 X87.765 Y93.186 E40.88259
G1 X87.787 Y93.219 E40.88391
G1 X88.084 Y93.791 E40.90535
G1 X88.096 Y93.833 E40.9068
G1 X88.201 Y94.488 E40.92886
G1 X88.199 Y94.532 E40.93033
G1 X88.099 Y95.17 E40.95181
G1 X88.084 Y95.209 E40.9532
G1 X87.797 Y95.77 E40.97416
G1 X87.769 Y95.806 E40.97567
G1 X87.308 Y96.273 E40.9975
G1 X87.27 Y96.298 E40.99901
G1 X86.707 Y96.584 E41.02002
G0 F6000 X86.065 Y97.098
;TYPE:WALL-INNER
G1 F1200 X85.906 Y97.094 E41.02531
G1 X85.261 Y96.993 E41.04702
G1 X85.109 Y96.94 E41.05237
G1 X84.519 Y96.638 E41.07442
G1 X84.398 Y96.545 E41.07949
G1 X83.924 Y96.069 E41.10184
G1 X83.845 Y95.95 E41.10659
G1 X83.567 Y95.405 E41.12694
G1 X83.509 Y95.23 E41.13307
G1 X83.407 Y94.612 E41.1539
G1 X83.406 Y94.424 E41.16015
G1 X83.501 Y93.792 E41.18141
G1 X83.56 Y93.609 E41.18781
G1 X83.862 Y93.02 E41.20982
G1 X83.946 Y92.914 E41.21432
G1 X84.409 Y92.445 E41.23624
G1 X84.532 Y92.359 E41.24123
G1 X85.088 Y92.069 E41.26209
G1 X85.268 Y92.009 E41.2684
G1 X85.888 Y91.907 E41.2893
G1 X86.076 Y91.906 E41.29555
G1 X86.746 Y92.008 E41.31809
G1 X86.891 Y92.06 E41.32321
G1 X87.484 Y92.364 E41.34538
G1 X87.602 Y92.455 E41.35033
G1 X88.056 Y92.911 E41.37174
G1 X88.141 Y93.034 E41.37671
G1 X88.444 Y93.615 E41.3985
G1 X88.491 Y93.769 E41.40386
G1 X88.597 Y94.425 E41.42596
G1 X88.594 Y94.594 E41.43158
G1 X88.493 Y95.242 E41.4534
G1 X88.44 Y95.391 E41.45866
G1 X88.146 Y95.966 E41.48013
G1 X88.054 Y96.086 E41.48516
G1 X87.582 Y96.565 E41.50753
G1 X87.452 Y96.654 E41.51277
G1 X86.873 Y96.948 E41.53437
G1 X86.729 Y96.991 E41.53937
G1 X86.065 Y97.098 E41.56174
G1 F1500 E35.06174
G0 F6000 X86.066 Y97.109
G0 X87.623 Y140.226
G0 X88.988 Y140.922
G0 X89.569 Y141.495
G0 X89.933 Y142.209
G0 X90.056 Y142.983
G0 X89.936 Y143.772
G0 X89.571 Y144.502
G0 X89.112 Y144.961
G0 X88.408 Y145.442
G1 F1500 E41.56174
G0 F6000 X88.223 Y145.077
;TYPE:WALL-OUTER
G1 F1200 X88.165 Y145.096 E41.56377
G1 X87.532 Y145.2 E41.5851
G1 X87.467 Y145.2 E41.58726
G1 X86.865 Y145.105 E41.60753
G1 X86.807 Y145.086 E41.60956
G1 X86.247 Y144.805 E41.6304
G1 X86.196 Y144.769 E41.63248
G1 X85.752 Y144.333 E41.65318
G1 X85.714 Y144.283 E41.65527
G1 X85.424 Y143.727 E41.67612
G1 X85.404 Y143.667 E41.67823
G1 X85.3 Y143.032 E41.69963
G1 X85.3 Y142.967 E41.70179
G1 X85.4 Y142.341 E41.72287
G1 X85.414 Y142.307 E41.7241
G1 X85.714 Y141.71 E41.74632
G1 X85.738 Y141.681 E41.74757
G1 X86.201 Y141.22 E41.7693
G1 X86.233 Y141.201 E41.77054
G1 X86.825 Y140.905 E41.79256
G1 X86.867 Y140.894 E41.794
G1 X87.491 Y140.798 E41.815
G1 X87.532 Y140.8 E41.81636
G1 X88.169 Y140.901 E41.83781
G1 X88.209 Y140.916 E41.83924
G1 X88.773 Y141.205 E41.86031
G1 X88.806 Y141.231 E41.86171
G1 X89.274 Y141.693 E41.88358
G1 X89.298 Y141.73 E41.88505
G1 X89.589 Y142.303 E41.90642
G1 X89.603 Y142.35 E41.90806
G1 X89.7 Y142.972 E41.92899
G1 X89.698 Y143.015 E41.93043
G1 X89.605 Y143.633 E41.95121
G1 X89.586 Y143.693 E41.9533
G1 X89.299 Y144.267 E41.97465
G1 X89.262 Y144.319 E41.97677
G1 X88.819 Y144.762 E41.99761
G1 X88.768 Y144.799 E41.99971
G1 X88.223 Y145.077 E42.02005
G0 F6000 X87.597 Y145.595
;TYPE:WALL-INNER
G1 F1200 X87.405 Y145.595 E42.02644
G1 X86.803 Y145.5 E42.04671
G1 X86.627 Y145.444 E42.05285
G1 X86.067 Y145.163 E42.07369
G1 X85.916 Y145.055 E42.07987
G1 X85.472 Y144.619 E42.10056
G1 X85.359 Y144.468 E42.10684
G1 X85.069 Y143.912 E42.12769
G1 X85.009 Y143.732 E42.134
G1 X84.905 Y143.096 E42.15544
G1 X84.905 Y142.905 E42.16179
G1 X85 Y142.303 E42.18206
G1 X85.056 Y142.128 E42.18817
G1 X85.362 Y141.519 E42.21084
G1 X85.455 Y141.398 E42.21592
G1 X85.928 Y140.927 E42.23812
G1 X86.054 Y140.843 E42.24316
G1 X86.655 Y140.543 E42.2655
G1 X86.805 Y140.499 E42.2707
G1 X87.451 Y140.399 E42.29244
G1 X87.594 Y140.405 E42.2972
G1 X88.25 Y140.509 E42.31929
G1 X88.391 Y140.56 E42.32428
G1 X88.976 Y140.86 E42.34614
G1 X89.086 Y140.946 E42.35079
G1 X89.568 Y141.422 E42.37332
G1 X89.654 Y141.548 E42.37839
G1 X89.957 Y142.145 E42.40066
G1 X89.998 Y142.288 E42.40561
G1 X90.093 Y142.891 E42.42591
G1 X90.094 Y143.075 E42.43203
G1 X90.001 Y143.693 E42.45282
G1 X89.944 Y143.872 E42.45907
G1 X89.657 Y144.446 E42.48041
G1 X89.545 Y144.602 E42.4868
G1 X89.102 Y145.045 E42.50763
G1 X88.95 Y145.155 E42.51388
G1 X88.405 Y145.433 E42.53422
G1 X88.23 Y145.491 E42.54036
G1 X87.597 Y145.595 E42.56169
G1 F1500 E36.06169
G0 F6000 X87.598 Y145.605
G0 X85.988 Y145.325
G0 X85.988 Y149.57
G0 X65.58 Y149.42
G1 F1500 E42.56169
G0 F6000 X65.2 Y149.8
;TYPE:WALL-OUTER
G1 F1200 X154.8 Y149.8 E45.5418
G1 X154.8 Y70.2 E48.18931
G1 X65.201 Y70.201 E51.16938
G1 X65.2 Y149.8 E53.81686
G0 F6000 X65.6 Y149.4
;TYPE:WALL-INNER
G1 F1200 X154.4 Y149.4 E56.77036
G1 X154.4 Y70.6 E59.39125
G1 X65.601 Y70.601 E62.34472
G1 X65.6 Y149.4 E64.96559
G1 F1500 E58.46559
G0 F6000 X65.61 Y149.4
G0 X137.044 Y149.57
G0 X137.642 Y130.148
G0 X137.044 Y129.662
G1 F1500 E64.96559
G0 F6000 X137.23 Y129.297
;TYPE:WALL-OUTER
G1 F1200 X137.194 Y129.269 E64.9671
G1 X136.742 Y128.823 E64.98822
G1 X136.714 Y128.783 E64.98985
G1 X136.416 Y128.209 E65.01136
G1 X136.404 Y128.167 E65.01281
G1 X136.301 Y127.532 E65.03421
G1 X136.301 Y127.468 E65.03634
G1 X136.402 Y126.827 E65.05792
G1 X136.425 Y126.774 E65.05984
G1 X136.71 Y126.217 E65.08065
G1 X137.17 Y125.749 E65.10248
G1 X137.403 Y125.618 E65.11137
G1 X137.81 Y125.408 E65.1266
G1 X137.879 Y125.393 E65.12895
G1 X138.489 Y125.297 E65.14949
G1 X138.532 Y125.299 E65.15092
G1 X139.135 Y125.395 E65.17123
G1 X139.193 Y125.414 E65.17326
G1 X139.78 Y125.708 E65.19509
G1 X139.819 Y125.738 E65.19673
G1 X140.276 Y126.196 E65.21825
G1 X140.299 Y126.232 E65.21967
G1 X140.592 Y126.809 E65.24119
G1 X140.603 Y126.85 E65.2426
G1 X140.701 Y127.473 E65.26358
G1 X140.699 Y127.515 E65.26498
G1 X140.599 Y128.17 E65.28702
G1 X140.584 Y128.209 E65.28841
G1 X140.288 Y128.787 E65.31
G1 X140.262 Y128.819 E65.31138
G1 X139.818 Y129.262 E65.33224
G1 X139.781 Y129.287 E65.33372
G1 X139.195 Y129.59 E65.35566
G1 X139.149 Y129.603 E65.35725
G1 X138.532 Y129.7 E65.37803
G1 X138.485 Y129.698 E65.37959
G1 X137.836 Y129.6 E65.40142
G1 X137.791 Y129.584 E65.40301
G1 X137.23 Y129.297 E65.42397
G0 F6000 X137.02 Y129.638
;TYPE:WALL-INNER
G1 F1200 X136.914 Y129.554 E65.42847
G1 X136.443 Y129.089 E65.45048
G1 X136.359 Y128.968 E65.45538
G1 X136.056 Y128.385 E65.47723
G1 X136.009 Y128.231 E65.48259
G1 X135.906 Y127.596 E65.50399
G1 X135.906 Y127.406 E65.51031
G1 X136.01 Y126.745 E65.53256
G1 X136.069 Y126.592 E65.53801
G1 X136.361 Y126.021 E65.55935
G1 X136.58 Y125.773 E65.57035
G1 X136.905 Y125.449 E65.58561
G1 X137.219 Y125.263 E65.59775
G1 X137.639 Y125.046 E65.61348
G1 X137.816 Y124.998 E65.61957
G1 X138.437 Y124.9 E65.64049
G1 X138.595 Y124.904 E65.64574
G1 X139.198 Y125 E65.66605
G1 X139.372 Y125.056 E65.67213
G1 X139.946 Y125.343 E65.69347
G1 X140.102 Y125.455 E65.69986
G1 X140.545 Y125.898 E65.7207
