;FLAVOR:Marlin
;TIME:6332
;Filament used: 4.37142m
;Layer height: 0.2
;MINX:54
;MINY:68.4
;MINZ:0.2
;MAXX:166
;MAXY:151.6
;MAXZ:14
;Generated with Cura_SteamEngine 5.0.0
M140 S60
M105
M190 S60
M104 S200
M105
M109 S200
M82 ;absolute extrusion mode
; Ender 3 Custom Start G-code
G92 E0 ; Reset Extruder
G28 ; Home all axes
G1 Z2.0 F3000 ; Move Z Axis up little to prevent scratching of Heat Bed
G1 X0.1 Y20 Z0.3 F5000.0 ; Move to start position
G1 X0.1 Y200.0 Z0.3 F1500.0 E15 ; Draw the first line
G1 X0.4 Y200.0 Z0.3 F5000.0 ; Move to side a little
G1 X0.4 Y20 Z0.3 F1500.0 E30 ; Draw the second line
G92 E0 ; Reset Extruder
G1 Z2.0 F3000 ; Move Z Axis up little to prevent scratching of Heat Bed
G1 X5 Y20 Z0.3 F5000.0 ; Move over to prevent blob squish
G92 E0
G92 E0
G1 F1500 E-6.5
;LAYER_COUNT:70
;LAYER:0
M107
G0 F6000 X57.886 Y71.027 Z0.2
G0 X54.001 Y79.925
;TYPE:SKIRT
G1 F1500 E0
G1 F1200 X54.01 Y79.26 E0.02212
G1 X54.063 Y78.324 E0.0533
G1 X54.195 Y77.395 E0.08451
G1 X54.406 Y76.481 E0.11571
G1 X54.694 Y75.589 E0.14689
G1 X55.057 Y74.724 E0.17809
G1 X55.492 Y73.893 E0.20928
G1 X55.996 Y73.103 E0.24045
G1 X56.566 Y72.358 E0.27165
G1 X57.198 Y71.664 E0.30287
G1 X57.886 Y71.027 E0.33405
G1 X58.626 Y70.451 E0.36524
G1 X59.412 Y69.939 E0.39644
G1 X60.239 Y69.497 E0.42763
G1 X61.101 Y69.127 E0.45883
G1 X61.991 Y68.831 E0.49003
G1 X62.903 Y68.613 E0.52122
G1 X63.83 Y68.472 E0.5524
G1 X64.701 Y68.413 E0.58144
G1 X65.33 Y68.4 E0.60236
G1 X154.293 Y68.4 E3.56128
G1 X155.149 Y68.411 E3.58976
G1 X156.085 Y68.465 E3.62094
G1 X157.013 Y68.597 E3.65212
G1 X157.927 Y68.809 E3.68332
G1 X158.819 Y69.098 E3.71451
G1 X159.684 Y69.461 E3.74571
G1 X160.514 Y69.897 E3.77689
G1 X161.305 Y70.402 E3.80811
G1 X162.049 Y70.973 E3.8393
G1 X162.742 Y71.605 E3.8705
G1 X163.379 Y72.293 E3.90168
G1 X163.954 Y73.034 E3.93288
G1 X164.465 Y73.82 E3.96406
G1 X164.907 Y74.648 E3.99528
G1 X165.276 Y75.51 E4.02646
G1 X165.571 Y76.4 E4.05765
G1 X165.789 Y77.312 E4.08884
G1 X165.929 Y78.24 E4.12005
G1 X165.987 Y79.101 E4.14875
G1 X166 Y79.73 E4.16968
G1 X165.999 Y140 E6.17427
G1 X165.99 Y140.727 E6.19845
G1 X165.939 Y141.664 E6.22966
G1 X165.807 Y142.592 E6.26083
G1 X165.598 Y143.506 E6.29202
G1 X165.311 Y144.399 E6.32322
G1 X164.949 Y145.265 E6.35443
G1 X164.515 Y146.096 E6.38562
G1 X164.011 Y146.887 E6.41681
G1 X163.442 Y147.632 E6.44799
G1 X162.811 Y148.327 E6.47921
G1 X162.124 Y148.965 E6.5104
G1 X161.385 Y149.542 E6.54158
G1 X160.599 Y150.054 E6.57278
G1 X159.773 Y150.497 E6.60395
G1 X158.911 Y150.869 E6.63518
G1 X158.022 Y151.165 E6.66634
G1 X157.11 Y151.385 E6.69755
G1 X156.183 Y151.526 E6.72873
G1 X155.299 Y151.587 E6.75821
G1 X154.67 Y151.6 E6.77913
G1 X65.565 Y151.599 E9.74278
G1 X64.867 Y151.59 E9.76599
G1 X63.931 Y151.538 E9.79717
G1 X63.002 Y151.406 E9.82838
G1 X62.088 Y151.196 E9.85957
G1 X61.195 Y150.909 E9.89077
G1 X60.33 Y150.546 E9.92197
G1 X59.499 Y150.112 E9.95315
G1 X58.708 Y149.608 E9.98435
G1 X57.963 Y149.038 E10.01555
G1 X57.269 Y148.407 E10.04675
G1 X56.632 Y147.72 E10.07791
G1 X56.055 Y146.98 E10.10912
G1 X55.543 Y146.194 E10.14032
G1 X55.1 Y145.367 E10.17152
G1 X54.729 Y144.506 E10.2027
G1 X54.433 Y143.616 E10.2339
G1 X54.214 Y142.704 E10.26509
G1 X54.073 Y141.777 E10.29628
G1 X54.013 Y140.888 E10.32592
G1 X54 Y140.258 E10.34687
G1 X54.001 Y79.925 E12.35356
G0 F6000 X54.401 Y79.931
G1 F1200 X54.41 Y79.266 E12.37568
G1 X54.462 Y78.346 E12.40633
G1 X54.594 Y77.435 E12.43694
G1 X54.805 Y76.539 E12.46756
G1 X55.092 Y75.664 E12.49819
G1 X55.455 Y74.818 E12.52881
G1 X55.889 Y74.006 E12.55943
G1 X56.392 Y73.235 E12.59005
G1 X56.961 Y72.511 E12.62067
G1 X57.589 Y71.839 E12.65127
G1 X58.274 Y71.223 E12.68191
G1 X59.01 Y70.67 E12.71253
G1 X59.791 Y70.182 E12.74316
G1 X60.611 Y69.764 E12.77377
G1 X61.465 Y69.419 E12.8044
G1 X62.345 Y69.149 E12.83502
G1 X63.245 Y68.957 E12.86563
G1 X64.159 Y68.843 E12.89626
G1 X64.712 Y68.813 E12.91468
G1 X65.33 Y68.8 E12.93524
G1 X154.293 Y68.8 E15.89416
G1 X155.143 Y68.811 E15.92243
G1 X156.062 Y68.864 E15.95305
G1 X156.973 Y68.997 E15.98367
G1 X157.869 Y69.208 E16.01429
G1 X158.743 Y69.496 E16.0449
G1 X159.59 Y69.859 E16.07555
G1 X160.401 Y70.294 E16.10615
G1 X161.171 Y70.798 E16.13676
G1 X161.895 Y71.367 E16.16739
G1 X162.567 Y71.997 E16.19803
G1 X163.182 Y72.682 E16.22865
G1 X163.735 Y73.418 E16.25926
G1 X164.222 Y74.199 E16.28988
G1 X164.639 Y75.02 E16.3205
G1 X164.984 Y75.874 E16.35114
G1 X165.253 Y76.754 E16.38174
G1 X165.445 Y77.655 E16.41238
G1 X165.558 Y78.568 E16.44298
G1 X165.596 Y79.432 E16.47175
G1 X165.599 Y139.995 E18.48608
G1 X165.59 Y140.722 E18.51026
G1 X165.539 Y141.641 E18.54088
G1 X165.408 Y142.553 E18.57152
G1 X165.198 Y143.449 E18.60213
G1 X164.912 Y144.324 E18.63275
G1 X164.551 Y145.171 E18.66337
G1 X164.117 Y145.983 E18.69399
G1 X163.615 Y146.755 E18.72462
G1 X163.047 Y147.48 E18.75525
G1 X162.419 Y148.153 E18.78587
G1 X161.735 Y148.769 E18.81649
G1 X161 Y149.323 E18.8471
G1 X160.22 Y149.812 E18.87772
G1 X159.4 Y150.231 E18.90835
G1 X158.547 Y150.577 E18.93896
G1 X157.667 Y150.848 E18.96959
G1 X156.767 Y151.041 E19.0002
G1 X155.853 Y151.156 E19.03084
G1 X155.288 Y151.187 E19.04966
G1 X154.67 Y151.2 E19.07022
G1 X65.57 Y151.199 E22.0337
G1 X64.872 Y151.19 E22.05692
G1 X63.953 Y151.138 E22.08753
G1 X63.042 Y151.007 E22.11814
G1 X62.146 Y150.797 E22.14875
G1 X61.271 Y150.51 E22.17938
G1 X60.424 Y150.148 E22.21002
G1 X59.612 Y149.714 E22.24064
G1 X58.841 Y149.212 E22.27124
G1 X58.116 Y148.644 E22.30187
G1 X57.443 Y148.015 E22.33251
G1 X56.828 Y147.331 E22.3631
G1 X56.274 Y146.596 E22.39372
G1 X55.786 Y145.815 E22.42435
G1 X55.367 Y144.995 E22.45497
G1 X55.021 Y144.142 E22.48559
G1 X54.751 Y143.262 E22.51621
G1 X54.558 Y142.361 E22.54685
G1 X54.444 Y141.448 E22.57746
G1 X54.413 Y140.877 E22.59647
G1 X54.4 Y140.258 E22.61707
G1 X54.401 Y79.931 E24.62355
G0 F6000 X54.801 Y79.936
G1 F1200 X54.81 Y79.271 E24.64567
G1 X54.862 Y78.369 E24.67572
G1 X54.994 Y77.476 E24.70575
G1 X55.204 Y76.598 E24.73577
G1 X55.491 Y75.741 E24.76583
G1 X55.853 Y74.914 E24.79586
G1 X56.286 Y74.122 E24.82588
G1 X56.788 Y73.371 E24.85592
G1 X57.355 Y72.667 E24.88599
G1 X57.981 Y72.017 E24.916
G1 X58.662 Y71.424 E24.94604
G1 X59.394 Y70.894 E24.9761
G1 X60.169 Y70.431 E25.00612
G1 X60.982 Y70.038 E25.03616
G1 X61.827 Y69.718 E25.06621
G1 X62.696 Y69.475 E25.09622
G1 X63.584 Y69.309 E25.12627
G1 X64.723 Y69.213 E25.16429
G1 X65.33 Y69.2 E25.18448
G1 X154.293 Y69.2 E28.1434
G1 X155.137 Y69.211 E28.17147
G1 X156.039 Y69.264 E28.20153
G1 X156.932 Y69.396 E28.23155
G1 X157.81 Y69.607 E28.26158
G1 X158.666 Y69.895 E28.29162
G1 X159.493 Y70.257 E28.32165
G1 X160.285 Y70.692 E28.3517
G1 X161.036 Y71.194 E28.38175
G1 X161.739 Y71.761 E28.41179
G1 X162.389 Y72.388 E28.44183
G1 X162.981 Y73.07 E28.47186
G1 X163.511 Y73.801 E28.50189
G1 X163.973 Y74.577 E28.53193
G1 X164.366 Y75.39 E28.56197
G1 X164.684 Y76.235 E28.59199
G1 X164.927 Y77.105 E28.62204
G1 X165.092 Y77.993 E28.65208
G1 X165.187 Y79.123 E28.6898
G1 X165.2 Y79.73 E28.70999
G1 X165.199 Y139.99 E30.71424
G1 X165.19 Y140.717 E30.73843
G1 X165.139 Y141.619 E30.76848
G1 X165.008 Y142.513 E30.79853
G1 X164.799 Y143.391 E30.82855
G1 X164.513 Y144.248 E30.8586
G1 X164.152 Y145.076 E30.88864
G1 X163.72 Y145.868 E30.91864
G1 X163.219 Y146.62 E30.9487
G1 X162.653 Y147.324 E30.97874
G1 X162.028 Y147.975 E31.00876
G1 X161.347 Y148.569 E31.03881
G1 X160.616 Y149.1 E31.06886
G1 X159.842 Y149.564 E31.09888
G1 X159.029 Y149.958 E31.12893
G1 X158.185 Y150.278 E31.15895
G1 X157.315 Y150.523 E31.18901
G1 X156.428 Y150.689 E31.21903
G1 X155.277 Y150.787 E31.25745
G1 X154.67 Y150.8 E31.27764
G1 X65.575 Y150.799 E34.24095
G1 X64.877 Y150.79 E34.26417
G1 X63.976 Y150.739 E34.29418
G1 X63.082 Y150.607 E34.32424
G1 X62.204 Y150.398 E34.35426
G1 X61.347 Y150.111 E34.38432
G1 X60.52 Y149.75 E34.41433
G1 X59.727 Y149.317 E34.44438
G1 X58.976 Y148.816 E34.47441
G1 X58.272 Y148.25 E34.50445
G1 X57.621 Y147.624 E34.53449
G1 X57.028 Y146.943 E34.56453
G1 X56.498 Y146.212 E34.59456
G1 X56.034 Y145.437 E34.6246
G1 X55.64 Y144.624 E34.65465
G1 X55.32 Y143.78 E34.68467
G1 X55.076 Y142.91 E34.71472
G1 X54.91 Y142.022 E34.74477
G1 X54.813 Y140.867 E34.78332
G1 X54.8 Y140.258 E34.80358
G1 X54.801 Y79.936 E36.8099
G1 F1500 E30.3099
;MESH:RC Laptimer.stl
G0 F6000 X64.335 Y79.936
G0 X65.43 Y79.936
G0 X65.58 Y140.02
G1 F1500 E36.8099
G0 F6000 X65.2 Y140.4
;TYPE:WALL-OUTER
G1 F1200 X154.8 Y140.4 E39.79001
G1 X154.8 Y79.6 E41.81222
G1 X65.2 Y79.6 E44.79233
G1 X65.2 Y140.4 E46.81455
G0 F6000 X65.6 Y140
;TYPE:WALL-INNER
G1 F1200 X154.4 Y140 E49.76805
G1 X154.4 Y80 E51.76366
G1 X65.6 Y80 E54.71716
G1 X65.6 Y140 E56.71276
G0 F6000 X65.96 Y139.64
;TYPE:SKIN
G1 F1200 X154.04 Y139.64 E59.64232
G1 X154.04 Y80.36 E61.61398
G1 X65.96 Y80.36 E64.54353
G1 X65.96 Y139.64 E66.51519
G0 F6000 X66.465 Y139.439
G1 F1200 X66.159 Y139.133 E66.52958
G0 F6000 X66.159 Y138.567
G1 F1200 X67.031 Y139.439 E66.5706
G0 F6000 X67.597 Y139.439
G1 F1200 X66.159 Y138.001 E66.63824
G0 F6000 X66.159 Y137.436
G1 F1200 X68.162 Y139.439 E66.73245
G0 F6000 X68.728 Y139.439
G1 F1200 X66.159 Y136.87 E66.85329
G0 F6000 X66.159 Y136.304
G1 F1200 X69.294 Y139.439 E67.00075
G0 F6000 X69.86 Y139.439
G1 F1200 X66.159 Y135.739 E67.17481
G0 F6000 X66.159 Y135.173
G1 F1200 X70.425 Y139.439 E67.37547
G0 F6000 X70.991 Y139.439
G1 F1200 X66.159 Y134.607 E67.60276
G0 F6000 X66.159 Y134.041
G1 F1200 X71.557 Y139.439 E67.85666
G0 F6000 X72.122 Y139.439
G1 F1200 X66.159 Y133.476 E68.13714
G0 F6000 X66.159 Y132.91
G1 F1200 X72.688 Y139.439 E68.44425
G0 F6000 X73.254 Y139.439
G1 F1200 X66.159 Y132.344 E68.77797
G0 F6000 X66.159 Y131.779
G1 F1200 X73.819 Y139.439 E69.13828
G0 F6000 X74.385 Y139.439
G1 F1200 X66.159 Y131.213 E69.5252
G0 F6000 X66.159 Y130.647
G1 F1200 X74.951 Y139.439 E69.93875
G0 F6000 X75.516 Y139.439
G1 F1200 X66.159 Y130.082 E70.37888
G0 F6000 X66.159 Y129.516
G1 F1200 X76.082 Y139.439 E70.84562
G0 F6000 X76.648 Y139.439
G1 F1200 X66.159 Y128.95 E71.33899
G0 F6000 X66.159 Y128.385
G1 F1200 X77.213 Y139.439 E71.85894
G0 F6000 X77.779 Y139.439
G1 F1200 X66.159 Y127.819 E72.40551
G0 F6000 X66.159 Y127.253
G1 F1200 X78.345 Y139.439 E72.9787
G0 F6000 X78.91 Y139.439
G1 F1200 X66.159 Y126.688 E73.57847
G0 F6000 X66.159 Y126.122
G1 F1200 X79.476 Y139.439 E74.20486
G0 F6000 X80.042 Y139.439
G1 F1200 X66.159 Y125.556 E74.85787
G0 F6000 X66.159 Y124.991
G1 F1200 X80.608 Y139.439 E75.53749
G0 F6000 X81.173 Y139.439
G1 F1200 X66.159 Y124.425 E76.2437
G0 F6000 X66.159 Y123.859
G1 F1200 X81.739 Y139.439 E76.97653
G0 F6000 X82.305 Y139.439
G1 F1200 X66.159 Y123.293 E77.73599
G0 F6000 X66.159 Y122.728
G1 F1200 X82.87 Y139.439 E78.52203
G0 F6000 X83.436 Y139.439
G1 F1200 X66.159 Y122.162 E79.33468
G0 F6000 X66.159 Y121.596
G1 F1200 X84.002 Y139.439 E80.17396
G0 F6000 X84.567 Y139.439
G1 F1200 X66.159 Y121.031 E81.03982
G0 F6000 X66.159 Y120.465
G1 F1200 X85.133 Y139.439 E81.9323
G0 F6000 X85.699 Y139.439
G1 F1200 X66.159 Y119.899 E82.8514
G0 F6000 X66.159 Y119.334
G1 F1200 X86.264 Y139.439 E83.79708
G0 F6000 X86.83 Y139.439
G1 F1200 X66.159 Y118.768 E84.76938
G0 F6000 X66.159 Y118.202
G1 F1200 X87.396 Y139.439 E85.7683
G0 F6000 X87.961 Y139.439
G1 F1200 X66.159 Y117.637 E86.7938
G0 F6000 X66.159 Y117.071
G1 F1200 X88.527 Y139.439 E87.84592
G0 F6000 X89.093 Y139.439
G1 F1200 X66.159 Y116.505 E88.92467
G0 F6000 X66.159 Y115.94
G1 F1200 X89.659 Y139.439 E90.03001
G0 F6000 X90.224 Y139.439
G1 F1200 X66.159 Y115.374 E91.16196
G0 F6000 X66.159 Y114.808
G1 F1200 X90.79 Y139.439 E92.32052
G0 F6000 X91.356 Y139.439
G1 F1200 X66.159 Y114.242 E93.50571
G0 F6000 X66.159 Y113.677
G1 F1200 X91.921 Y139.439 E94.71748
G0 F6000 X92.487 Y139.439
G1 F1200 X66.159 Y113.111 E95.95587
G0 F6000 X66.159 Y112.545
G1 F1200 X93.053 Y139.439 E97.22088
G0 F6000 X93.618 Y139.439
G1 F1200 X66.159 Y111.98 E98.51246
G0 F6000 X66.159 Y111.414
G1 F1200 X94.184 Y139.439 E99.83068
G0 F6000 X94.75 Y139.439
G1 F1200 X66.159 Y110.848 E101.17551
G0 F6000 X66.159 Y110.283
G1 F1200 X95.315 Y139.439 E102.54692
G0 F6000 X95.881 Y139.439
G1 F1200 X66.159 Y109.717 E103.94495
G0 F6000 X66.159 Y109.151
G1 F1200 X96.447 Y139.439 E105.3696
G0 F6000 X97.012 Y139.439
G1 F1200 X66.159 Y108.586 E106.82083
G0 F6000 X66.159 Y108.02
G1 F1200 X97.578 Y139.439 E108.29869
G0 F6000 X98.144 Y139.439
G1 F1200 X66.159 Y107.454 E109.80316
G0 F6000 X66.159 Y106.889
G1 F1200 X98.709 Y139.439 E111.33422
G0 F6000 X99.275 Y139.439
G1 F1200 X66.159 Y106.323 E112.89189
G0 F6000 X66.159 Y105.757
G1 F1200 X99.841 Y139.439 E114.47619
G0 F6000 X100.407 Y139.439
G1 F1200 X66.159 Y105.192 E116.08709
G0 F6000 X66.159 Y104.626
G1 F1200 X100.972 Y139.439 E117.72458
G0 F6000 X101.538 Y139.439
G1 F1200 X66.159 Y104.06 E119.3887
G0 F6000 X66.159 Y103.494
G1 F1200 X102.104 Y139.439 E121.07945
G0 F6000 X102.669 Y139.439
G1 F1200 X66.159 Y102.929 E122.79676
G0 F6000 X66.159 Y102.363
G1 F1200 X103.235 Y139.439 E124.54071
G0 F6000 X103.801 Y139.439
G1 F1200 X66.159 Y101.797 E126.31127
G0 F6000 X66.159 Y101.232
G1 F1200 X104.366 Y139.439 E128.10841
G0 F6000 X104.932 Y139.439
G1 F1200 X66.159 Y100.666 E129.93217
G0 F6000 X66.159 Y100.1
G1 F1200 X105.498 Y139.439 E131.78256
G0 F6000 X106.063 Y139.439
G1 F1200 X66.159 Y99.535 E133.65952
G0 F6000 X66.159 Y98.969
G1 F1200 X106.629 Y139.439 E135.56311
G0 F6000 X107.195 Y139.439
G1 F1200 X66.159 Y98.403 E137.49331
G0 F6000 X66.159 Y97.838
G1 F1200 X107.76 Y139.439 E139.4501
G0 F6000 X108.326 Y139.439
G1 F1200 X66.159 Y97.272 E141.4335
G0 F6000 X66.159 Y96.706
G1 F1200 X108.892 Y139.439 E143.44353
G0 F6000 X109.458 Y139.439
G1 F1200 X66.159 Y96.141 E145.48016
G0 F6000 X66.159 Y95.575
G1 F1200 X110.023 Y139.439 E147.54339
G0 F6000 X110.589 Y139.439
G1 F1200 X66.159 Y95.009 E149.63324
G0 F6000 X66.159 Y94.444
G1 F1200 X111.155 Y139.439 E151.74969
G0 F6000 X111.72 Y139.439
G1 F1200 X66.159 Y93.878 E153.89274
G0 F6000 X66.159 Y93.312
G1 F1200 X112.286 Y139.439 E156.06241
G0 F6000 X112.852 Y139.439
G1 F1200 X66.159 Y92.746 E158.25871
G0 F6000 X66.159 Y92.181
G1 F1200 X113.417 Y139.439 E160.48158
G0 F6000 X113.983 Y139.439
G1 F1200 X66.159 Y91.615 E162.73107
G0 F6000 X66.159 Y91.049
G1 F1200 X114.549 Y139.439 E165.00719
G0 F6000 X115.114 Y139.439
G1 F1200 X66.159 Y90.484 E167.30988
G0 F6000 X66.159 Y89.918
G1 F1200 X115.68 Y139.439 E169.6392
G0 F6000 X116.246 Y139.439
G1 F1200 X66.159 Y89.352 E171.99514
G0 F6000 X66.159 Y88.787
G1 F1200 X116.811 Y139.439 E174.37765
G0 F6000 X117.377 Y139.439
G1 F1200 X66.159 Y88.221 E176.78679
G0 F6000 X66.159 Y87.655
G1 F1200 X117.943 Y139.439 E179.22255
G0 F6000 X118.508 Y139.439
G1 F1200 X66.159 Y87.09 E181.68489
G0 F6000 X66.159 Y86.524
G1 F1200 X119.074 Y139.439 E184.17385
G0 F6000 X119.64 Y139.439
G1 F1200 X66.159 Y85.958 E186.68943
G0 F6000 X66.159 Y85.393
G1 F1200 X120.206 Y139.439 E189.23161
G0 F6000 X120.771 Y139.439
G1 F1200 X66.159 Y84.827 E191.80039
G0 F6000 X66.159 Y84.261
G1 F1200 X121.337 Y139.439 E194.3958
G0 F6000 X121.903 Y139.439
G1 F1200 X66.159 Y83.695 E197.01782
G0 F6000 X66.159 Y83.13
G1 F1200 X122.468 Y139.439 E199.66643
G0 F6000 X123.034 Y139.439
G1 F1200 X66.159 Y82.564 E202.34165
G0 F6000 X66.159 Y81.998
G1 F1200 X123.6 Y139.439 E205.0435
G0 F6000 X124.165 Y139.439
G1 F1200 X66.159 Y81.433 E207.77193
G0 F6000 X66.159 Y80.867
G1 F1200 X124.731 Y139.439 E210.52697
G0 F6000 X125.297 Y139.439
G1 F1200 X66.417 Y80.559 E213.29651
G0 F6000 X66.983 Y80.559
G1 F1200 X125.862 Y139.439 E216.06602
G0 F6000 X126.428 Y139.439
G1 F1200 X67.549 Y80.559 E218.83553
G0 F6000 X68.114 Y80.559
G1 F1200 X126.994 Y139.439 E221.60506
G0 F6000 X127.559 Y139.439
G1 F1200 X68.68 Y80.559 E224.37458
G0 F6000 X69.246 Y80.559
G1 F1200 X128.125 Y139.439 E227.14409
G0 F6000 X128.691 Y139.439
G1 F1200 X69.811 Y80.559 E229.91362
G0 F6000 X70.377 Y80.559
G1 F1200 X129.256 Y139.439 E232.68313
G0 F6000 X129.822 Y139.439
G1 F1200 X70.943 Y80.559 E235.45264
G0 F6000 X71.509 Y80.559
G1 F1200 X130.388 Y139.439 E238.22215
G0 F6000 X130.954 Y139.439
G1 F1200 X72.074 Y80.559 E240.99169
G0 F6000 X72.64 Y80.559
G1 F1200 X131.519 Y139.439 E243.7612
G0 F6000 X132.085 Y139.439
