;FLAVOR:Marlin
;TIME:17520
;Filament used: 9.34774m
;Layer height: 0.2
;MINX:54
;MINY:58.951
;MINZ:0.2
;MAXX:166
;MAXY:161.049
;MAXZ:35
;Generated with Cura_SteamEngine 5.0.0
M140 S60
M105
M190 S60
M104 S200
M105
M109 S200
M82 ;absolute extrusion mode
; Ender 3 Custom Start G-code
G92 E0 ; Reset Extruder
G28 ; Home all axes
G1 Z2.0 F3000 ; Move Z Axis up little to prevent scratching of Heat Bed
G1 X0.1 Y20 Z0.3 F5000.0 ; Move to start position
G1 X0.1 Y200.0 Z0.3 F1500.0 E15 ; Draw the first line
G1 X0.4 Y200.0 Z0.3 F5000.0 ; Move to side a little
G1 X0.4 Y20 Z0.3 F1500.0 E30 ; Draw the second line
G92 E0 ; Reset Extruder
G1 Z2.0 F3000 ; Move Z Axis up little to prevent scratching of Heat Bed
G1 X5 Y20 Z0.3 F5000.0 ; Move over to prevent blob squish
G92 E0
G92 E0
G1 F1500 E-6.5
;LAYER_COUNT:175
;LAYER:0
M107
G0 F6000 X57.197 Y62.314 Z0.2
G0 X54.001 Y70.579
;TYPE:SKIRT
G1 F1500 E0
G1 F1200 X54.01 Y69.91 E0.02225
G1 X54.063 Y68.974 E0.05343
G1 X54.195 Y68.045 E0.08464
G1 X54.406 Y67.131 E0.11584
G1 X54.693 Y66.239 E0.14701
G1 X55.056 Y65.374 E0.17821
G1 X55.491 Y64.543 E0.20941
G1 X55.996 Y63.752 E0.24062
G1 X56.566 Y63.007 E0.27182
G1 X57.197 Y62.314 E0.30299
G1 X57.885 Y61.677 E0.33418
G1 X58.625 Y61.1 E0.36539
G1 X59.411 Y60.589 E0.39657
G1 X60.238 Y60.146 E0.42777
G1 X61.1 Y59.776 E0.45897
G1 X61.99 Y59.48 E0.49017
G1 X62.902 Y59.262 E0.52136
G1 X63.829 Y59.121 E0.55254
G1 X64.376 Y59.076 E0.5708
G1 X65.367 Y59.021 E0.60381
G1 X66.89 Y58.96 E0.6545
G1 X67.33 Y58.951 E0.66914
G1 X154.293 Y58.951 E3.56154
G1 X155.149 Y58.962 E3.59002
G1 X156.085 Y59.016 E3.6212
G1 X157.013 Y59.148 E3.65238
G1 X157.927 Y59.36 E3.68358
G1 X158.819 Y59.649 E3.71477
G1 X159.684 Y60.012 E3.74597
G1 X160.514 Y60.448 E3.77715
G1 X161.305 Y60.953 E3.80837
G1 X162.049 Y61.524 E3.83956
G1 X162.742 Y62.156 E3.87075
G1 X163.379 Y62.844 E3.90194
G1 X163.954 Y63.585 E3.93313
G1 X164.465 Y64.371 E3.96432
G1 X164.907 Y65.199 E3.99553
G1 X165.276 Y66.061 E4.02672
G1 X165.571 Y66.951 E4.05791
G1 X165.789 Y67.863 E4.08909
G1 X165.929 Y68.791 E4.12031
G1 X165.987 Y69.652 E4.14901
G1 X166 Y70.281 E4.16993
G1 X165.999 Y149.449 E6.80307
G1 X165.99 Y150.176 E6.82726
G1 X165.939 Y151.113 E6.85847
G1 X165.807 Y152.041 E6.88964
G1 X165.598 Y152.955 E6.92083
G1 X165.311 Y153.848 E6.95202
G1 X164.949 Y154.714 E6.98324
G1 X164.515 Y155.545 E7.01442
G1 X164.011 Y156.336 E7.04562
G1 X163.442 Y157.081 E7.0768
G1 X162.811 Y157.776 E7.10802
G1 X162.124 Y158.414 E7.1392
G1 X161.385 Y158.991 E7.17039
G1 X160.599 Y159.503 E7.20159
G1 X159.773 Y159.946 E7.23276
G1 X158.911 Y160.318 E7.26399
G1 X158.022 Y160.614 E7.29515
G1 X157.11 Y160.834 E7.32636
G1 X156.183 Y160.975 E7.35754
G1 X155.299 Y161.036 E7.38701
G1 X154.67 Y161.049 E7.40794
G1 X65.565 Y161.048 E10.37158
G1 X64.867 Y161.039 E10.3948
G1 X63.931 Y160.987 E10.42598
G1 X63.002 Y160.855 E10.45719
G1 X62.088 Y160.645 E10.48838
G1 X61.195 Y160.358 E10.51958
G1 X60.33 Y159.995 E10.55078
G1 X59.499 Y159.561 E10.58196
G1 X58.708 Y159.057 E10.61316
G1 X57.963 Y158.487 E10.64436
G1 X57.269 Y157.856 E10.67555
G1 X56.632 Y157.169 E10.70671
G1 X56.055 Y156.429 E10.73792
G1 X55.543 Y155.643 E10.76912
G1 X55.1 Y154.816 E10.80033
G1 X54.729 Y153.955 E10.83151
G1 X54.433 Y153.065 E10.86271
G1 X54.214 Y152.153 E10.8939
G1 X54.073 Y151.226 E10.92509
G1 X54.013 Y150.337 E10.95472
G1 X54 Y149.707 E10.97568
G1 X54.001 Y70.579 E13.60749
G0 F6000 X54.401 Y70.584
G1 F1200 X54.41 Y69.915 E13.62974
G1 X54.462 Y68.996 E13.66036
G1 X54.594 Y68.085 E13.69097
G1 X54.805 Y67.189 E13.72159
G1 X55.092 Y66.314 E13.75222
G1 X55.454 Y65.468 E13.78282
G1 X55.889 Y64.656 E13.81346
G1 X56.392 Y63.885 E13.84408
G1 X56.96 Y63.161 E13.87469
G1 X57.589 Y62.488 E13.90533
G1 X58.274 Y61.873 E13.93594
G1 X59.009 Y61.319 E13.96656
G1 X59.79 Y60.832 E13.99717
G1 X60.611 Y60.414 E14.02781
G1 X61.464 Y60.068 E14.05843
G1 X62.344 Y59.798 E14.08904
G1 X63.244 Y59.606 E14.11965
G1 X64.399 Y59.476 E14.15831
G1 X65.383 Y59.42 E14.19109
G1 X66.906 Y59.359 E14.24179
G1 X67.33 Y59.351 E14.25589
G1 X154.293 Y59.351 E17.14829
G1 X155.143 Y59.362 E17.17657
G1 X156.062 Y59.415 E17.20718
G1 X156.973 Y59.548 E17.2378
G1 X157.869 Y59.759 E17.26842
G1 X158.743 Y60.047 E17.29903
G1 X159.59 Y60.41 E17.32968
G1 X160.401 Y60.845 E17.36029
G1 X161.171 Y61.349 E17.39089
G1 X161.895 Y61.918 E17.42152
G1 X162.567 Y62.548 E17.45216
G1 X163.182 Y63.233 E17.48278
G1 X163.735 Y63.969 E17.5134
G1 X164.222 Y64.75 E17.54401
G1 X164.639 Y65.571 E17.57464
G1 X164.984 Y66.425 E17.60527
G1 X165.253 Y67.305 E17.63588
G1 X165.445 Y68.206 E17.66652
G1 X165.558 Y69.119 E17.69711
G1 X165.596 Y69.983 E17.72588
G1 X165.599 Y149.444 E20.36876
G1 X165.59 Y150.171 E20.39294
G1 X165.539 Y151.09 E20.42356
G1 X165.408 Y152.002 E20.4542
G1 X165.198 Y152.898 E20.48481
G1 X164.912 Y153.773 E20.51543
G1 X164.551 Y154.62 E20.54605
G1 X164.117 Y155.432 E20.57667
G1 X163.615 Y156.204 E20.6073
G1 X163.047 Y156.929 E20.63794
G1 X162.419 Y157.602 E20.66855
G1 X161.735 Y158.218 E20.69917
G1 X161 Y158.772 E20.72978
G1 X160.22 Y159.261 E20.7604
G1 X159.4 Y159.68 E20.79103
G1 X158.547 Y160.026 E20.82164
G1 X157.667 Y160.297 E20.85227
G1 X156.767 Y160.49 E20.88288
G1 X155.853 Y160.605 E20.91352
G1 X155.288 Y160.636 E20.93234
G1 X154.67 Y160.649 E20.9529
G1 X65.57 Y160.648 E23.91638
G1 X64.872 Y160.639 E23.9396
G1 X63.953 Y160.587 E23.97021
G1 X63.042 Y160.456 E24.00082
G1 X62.146 Y160.246 E24.03143
G1 X61.271 Y159.959 E24.06206
G1 X60.424 Y159.597 E24.0927
G1 X59.612 Y159.163 E24.12332
G1 X58.841 Y158.661 E24.15392
G1 X58.116 Y158.093 E24.18455
G1 X57.443 Y157.464 E24.21519
G1 X56.828 Y156.78 E24.24578
G1 X56.274 Y156.045 E24.2764
G1 X55.786 Y155.264 E24.30703
G1 X55.367 Y154.444 E24.33766
G1 X55.021 Y153.591 E24.36827
G1 X54.751 Y152.711 E24.39889
G1 X54.558 Y151.81 E24.42953
G1 X54.444 Y150.897 E24.46014
G1 X54.413 Y150.326 E24.47916
G1 X54.4 Y149.707 E24.49975
G1 X54.401 Y70.584 E27.13139
G0 F6000 X54.801 Y70.59
G1 F1200 X54.81 Y69.921 E27.15364
G1 X54.862 Y69.019 E27.18369
G1 X54.994 Y68.126 E27.21372
G1 X55.204 Y67.247 E27.24378
G1 X55.491 Y66.391 E27.2738
G1 X55.853 Y65.564 E27.30383
G1 X56.286 Y64.771 E27.33388
G1 X56.788 Y64.02 E27.36393
G1 X57.354 Y63.317 E27.39394
G1 X57.98 Y62.666 E27.42398
G1 X58.662 Y62.074 E27.45402
G1 X59.393 Y61.543 E27.48407
G1 X60.168 Y61.08 E27.5141
G1 X60.981 Y60.687 E27.54413
G1 X61.826 Y60.367 E27.57418
G1 X62.695 Y60.124 E27.6042
G1 X63.583 Y59.958 E27.63424
G1 X64.422 Y59.875 E27.66228
G1 X65.399 Y59.82 E27.69483
G1 X66.922 Y59.759 E27.74553
G1 X67.33 Y59.751 E27.7591
G1 X154.293 Y59.751 E30.6515
G1 X155.137 Y59.762 E30.67957
G1 X156.039 Y59.815 E30.70963
G1 X156.932 Y59.947 E30.73965
G1 X157.81 Y60.158 E30.76968
G1 X158.666 Y60.446 E30.79972
G1 X159.493 Y60.808 E30.82975
G1 X160.285 Y61.243 E30.8598
G1 X161.036 Y61.745 E30.88985
G1 X161.739 Y62.312 E30.91989
G1 X162.389 Y62.939 E30.94992
G1 X162.981 Y63.621 E30.97996
G1 X163.511 Y64.352 E31.00999
G1 X163.973 Y65.128 E31.04003
G1 X164.366 Y65.941 E31.07007
G1 X164.684 Y66.786 E31.10009
G1 X164.927 Y67.656 E31.13014
G1 X165.092 Y68.544 E31.16018
G1 X165.187 Y69.674 E31.1979
G1 X165.2 Y70.281 E31.21809
G1 X165.199 Y149.439 E33.85089
G1 X165.19 Y150.166 E33.87508
G1 X165.139 Y151.068 E33.90513
G1 X165.008 Y151.962 E33.93518
G1 X164.799 Y152.84 E33.9652
G1 X164.513 Y153.697 E33.99524
G1 X164.152 Y154.525 E34.02529
G1 X163.72 Y155.317 E34.05529
G1 X163.219 Y156.069 E34.08535
G1 X162.653 Y156.773 E34.11539
G1 X162.028 Y157.424 E34.14541
G1 X161.347 Y158.018 E34.17546
G1 X160.616 Y158.549 E34.20551
G1 X159.842 Y159.013 E34.23553
G1 X159.029 Y159.407 E34.26558
G1 X158.185 Y159.727 E34.2956
G1 X157.315 Y159.972 E34.32566
G1 X156.428 Y160.138 E34.35567
G1 X155.277 Y160.236 E34.3941
G1 X154.67 Y160.249 E34.41429
G1 X65.575 Y160.248 E37.3776
G1 X64.877 Y160.239 E37.40082
G1 X63.976 Y160.188 E37.43083
G1 X63.082 Y160.056 E37.46089
G1 X62.204 Y159.847 E37.49091
G1 X61.347 Y159.56 E37.52097
G1 X60.52 Y159.199 E37.55098
G1 X59.727 Y158.766 E37.58103
G1 X58.976 Y158.265 E37.61106
G1 X58.272 Y157.699 E37.6411
G1 X57.621 Y157.073 E37.67114
G1 X57.028 Y156.392 E37.70118
G1 X56.498 Y155.661 E37.73121
G1 X56.034 Y154.886 E37.76125
G1 X55.64 Y154.073 E37.7913
G1 X55.32 Y153.229 E37.82132
G1 X55.076 Y152.359 E37.85137
G1 X54.91 Y151.471 E37.88142
G1 X54.813 Y150.316 E37.91997
G1 X54.8 Y149.707 E37.94023
G1 X54.801 Y70.59 E40.57167
G1 F1500 E34.07167
G0 F6000 X75.497 Y86.241
G1 F1500 E40.57167
G1 F1200 X144.503 Y86.241 E42.86682
G1 X144.503 Y86.735 E42.88325
G1 X75.497 Y86.734 E45.1784
G1 X75.497 Y86.241 E45.1948
G0 F6000 X75.095 Y87.134
G1 F1200 X75.097 Y85.841 E45.2378
G1 X144.903 Y85.841 E47.55956
G1 X144.905 Y87.135 E47.6026
G1 X75.095 Y87.134 E49.92449
G0 F6000 X74.594 Y87.534
G1 F1200 X74.69 Y87.171 E49.93698
G1 X74.697 Y87.12 E49.93869
G1 X74.697 Y85.441 E49.99453
G1 X145.303 Y85.441 E52.3429
G1 X145.303 Y87.115 E52.39858
G1 X145.403 Y87.535 E52.41294
G1 X74.594 Y87.534 E54.76805
G1 F1500 E48.26805
G0 F6000 X72.665 Y113.046
G0 X71.8 Y113.046
;TYPE:SUPPORT-INTERFACE
G1 F1500 E54.76805
G1 F1200 X71.8 Y123.051 E55.10082
G1 X68 Y123.051 E55.22721
G1 X68 Y113.046 E55.55998
G1 X71.8 Y113.046 E55.68637
G0 F6000 X70.036 Y113.245
G1 F1200 X68.199 Y115.082 E55.77277
G0 F6000 X68.199 Y115.717
G1 F1200 X71.6 Y119.117 E55.93272
G0 F6000 X71.599 Y118.47
G1 F1200 X68.199 Y121.87 E56.09265
G0 F6000 X68.199 Y122.505
G1 F1200 X68.544 Y122.849 E56.10885
G0 F6000 X70.613 Y122.85
G1 F1200 X71.599 Y121.864 E56.15523
G0 F6000 X71.6 Y122.511
G1 F1200 X68.199 Y119.111 E56.31518
G0 F6000 X68.199 Y118.476
G1 F1200 X71.599 Y115.076 E56.4751
G0 F6000 X71.6 Y115.723
G1 F1200 X69.121 Y113.245 E56.59169
G1 F1500 E50.09169
;MESH:laptimer_middle_top.stl
G0 F6000 X71.51 Y128.313
G0 X72 Y128.591
G0 X72.759 Y128.712
G0 X73.444 Y129.061
G0 X73.988 Y129.605
G0 X74.337 Y130.29
G0 X74.457 Y131.049
G0 X74.337 Y131.808
G0 X73.988 Y132.493
G0 X72.893 Y133.497
G1 F1500 E56.59169
G0 F6000 X72.709 Y133.133
;TYPE:WALL-OUTER
G1 F1200 X72.649 Y133.152 E56.59378
G1 X72.032 Y133.249 E56.61455
G1 X71.968 Y133.249 E56.61668
G1 X71.351 Y133.152 E56.63745
G1 X71.291 Y133.133 E56.63955
G1 X70.732 Y132.848 E56.66042
G1 X70.681 Y132.811 E56.66251
G1 X70.238 Y132.368 E56.68335
G1 X70.086 Y132.092 E56.69383
G1 X69.916 Y131.758 E56.70629
G1 X69.897 Y131.699 E56.70836
G1 X69.799 Y131.081 E56.72917
G1 X69.799 Y131.017 E56.7313
G1 X69.897 Y130.399 E56.75211
G1 X69.916 Y130.34 E56.75417
G1 X70.201 Y129.781 E56.77504
G1 X70.458 Y129.51 E56.78746
G1 X70.681 Y129.287 E56.79795
G1 X70.732 Y129.25 E56.80005
G1 X71.291 Y128.965 E56.82092
G1 X71.35 Y128.946 E56.82298
G1 X71.982 Y128.846 E56.84426
G1 X72.032 Y128.848 E56.84592
G1 X72.65 Y128.946 E56.86674
G1 X72.709 Y128.965 E56.8688
G1 X73.268 Y129.25 E56.88967
G1 X73.54 Y129.508 E56.90214
G1 X73.762 Y129.73 E56.91258
G1 X73.799 Y129.781 E56.91467
G1 X74.084 Y130.34 E56.93554
G1 X74.103 Y130.4 E56.93764
G1 X74.2 Y131.017 E56.95841
G1 X74.2 Y131.081 E56.96054
G1 X74.103 Y131.702 E56.98144
G1 X74.084 Y131.758 E56.98341
G1 X73.799 Y132.317 E57.00428
G1 X73.541 Y132.589 E57.01675
G1 X73.319 Y132.811 E57.02719
G1 X73.268 Y132.848 E57.02929
G1 X72.709 Y133.133 E57.05016
G0 F6000 X72.891 Y133.489
;TYPE:WALL-INNER
G1 F1200 X72.711 Y133.548 E57.05646
G1 X72.094 Y133.644 E57.07722
G1 X71.906 Y133.644 E57.08348
G1 X71.289 Y133.548 E57.10425
G1 X71.109 Y133.489 E57.11055
G1 X70.55 Y133.204 E57.13142
G1 X70.398 Y133.094 E57.13766
G1 X69.955 Y132.651 E57.15849
G1 X69.73 Y132.274 E57.1731
G1 X69.56 Y131.94 E57.18556
G1 X69.502 Y131.761 E57.19182
G1 X69.404 Y131.144 E57.2126
G1 X69.404 Y130.954 E57.21892
G1 X69.502 Y130.337 E57.2397
G1 X69.56 Y130.158 E57.24595
G1 X69.845 Y129.599 E57.26682
G1 X70.175 Y129.227 E57.28336
G1 X70.398 Y129.004 E57.29385
G1 X70.55 Y128.894 E57.30009
G1 X71.109 Y128.609 E57.32096
G1 X71.287 Y128.551 E57.32719
G1 X71.947 Y128.447 E57.34941
G1 X72.094 Y128.453 E57.3543
G1 X72.713 Y128.551 E57.37515
G1 X72.891 Y128.609 E57.38138
G1 X73.45 Y128.894 E57.40225
G1 X73.823 Y129.226 E57.41885
G1 X74.045 Y129.447 E57.42927
G1 X74.155 Y129.599 E57.43551
G1 X74.44 Y130.158 E57.45638
G1 X74.498 Y130.338 E57.46267
G1 X74.595 Y130.955 E57.48345
G1 X74.595 Y131.143 E57.4897
G1 X74.497 Y131.771 E57.51084
G1 X74.44 Y131.94 E57.51677
G1 X74.155 Y132.499 E57.53764
G1 X73.823 Y132.872 E57.55425
G1 X73.602 Y133.094 E57.56467
G1 X73.45 Y133.204 E57.57091
G1 X72.891 Y133.489 E57.59178
G1 F1500 E51.09178
G0 F6000 X72.894 Y133.497
G0 X71.877 Y133.823
G0 X71.141 Y135.268
G0 X66.462 Y135.511
G0 X66.462 Y148.587
G0 X67 Y148.659
G1 F1500 E57.59178
G0 F6000 X67 Y148.249
;TYPE:WALL-OUTER
G1 F1200 X66.858 Y148.191 E57.59688
G1 X66.8 Y148.049 E57.60198
G1 X66.8 Y136.049 E58.0011
G1 X66.839 Y135.928 E58.00533
G1 X67 Y135.849 E58.0113
G1 X76.8 Y135.849 E58.33725
G1 X76.8 Y126.249 E58.65654
G1 X71.982 Y126.249 E58.81679
G1 X71.847 Y126.179 E58.82185
G1 X71.8 Y126.049 E58.82645
G1 X71.8 Y124.251 E58.88625
G1 X67 Y124.251 E59.0459
G1 X66.839 Y124.171 E59.05188
G1 X66.8 Y124.051 E59.05607
G1 X66.8 Y112.046 E59.45536
G1 X66.879 Y111.886 E59.46129
G1 X67 Y111.846 E59.46553
G1 X71.8 Y111.846 E59.62518
G1 X71.8 Y110.25 E59.67827
G1 X66.982 Y110.249 E59.83851
G1 X66.879 Y110.209 E59.84219
G1 X66.8 Y110.049 E59.84812
G1 X66.8 Y72.049 E61.11201
G1 X66.858 Y71.907 E61.11711
G1 X67 Y71.849 E61.12221
G1 X153 Y71.849 E63.98258
G1 X153.134 Y71.899 E63.98734
G1 X153.2 Y72.049 E63.99279
G1 X153.2 Y126.049 E65.78884
G1 X153.161 Y126.169 E65.79303
G1 X153 Y126.249 E65.79901
G1 X143.201 Y126.25 E66.12493
G1 X143.201 Y135.848 E66.44416
G1 X153 Y135.849 E66.77008
G1 X153.161 Y135.928 E66.77604
G1 X153.2 Y136.049 E66.78027
G1 X153.2 Y148.049 E67.17939
G1 X153.142 Y148.191 E67.18449
G1 X153 Y148.249 E67.1896
G1 X67 Y148.249 E70.04997
G0 F6000 X67 Y148.649
;TYPE:WALL-INNER
G1 F1200 X66.575 Y148.474 E70.06525
G1 X66.408 Y148.153 E70.07729
G1 X66.4 Y148.049 E70.08076
G1 X66.4 Y136.049 E70.47988
G1 X66.519 Y135.688 E70.49252
G1 X66.769 Y135.495 E70.50303
G1 X67 Y135.449 E70.51086
G1 X76.4 Y135.449 E70.82351
G1 X76.4 Y126.649 E71.1162
G1 X72 Y126.649 E71.26254
G1 X71.685 Y126.561 E71.27342
G1 X71.542 Y126.438 E71.27969
G1 X71.43 Y126.24 E71.28726
G1 X71.4 Y126.049 E71.29369
G1 X71.4 Y124.651 E71.34019
G1 X67 Y124.651 E71.48653
G1 X66.768 Y124.605 E71.4944
G1 X66.519 Y124.411 E71.5049
G1 X66.408 Y124.155 E71.51418
G1 X66.4 Y124.051 E71.51765
G1 X66.4 Y112.046 E71.91693
G1 X66.639 Y111.566 E71.93477
G1 X66.947 Y111.447 E71.94575
G1 X71.4 Y111.446 E72.09386
G1 X71.4 Y110.65 E72.12033
G1 X67 Y110.65 E72.26668
G1 X66.788 Y110.612 E72.27384
G1 X66.639 Y110.529 E72.27951
G1 X66.408 Y110.153 E72.29419
G1 X66.4 Y110.049 E72.29766
G1 X66.4 Y72.049 E73.56154
G1 X66.575 Y71.624 E73.57683
G1 X66.896 Y71.457 E73.58887
G1 X67.443 Y71.449 E73.60706
G1 X153 Y71.449 E76.4527
G1 X153.4 Y71.6 E76.46692
G1 X153.6 Y72.049 E76.48327
G1 X153.6 Y126.049 E78.27932
G1 X153.482 Y126.409 E78.29192
G1 X153.232 Y126.603 E78.30244
G1 X153 Y126.649 E78.31031
G1 X143.601 Y126.65 E78.62292
G1 X143.601 Y135.448 E78.91554
G1 X153 Y135.449 E79.22815
G1 X153.232 Y135.494 E79.23601
G1 X153.481 Y135.688 E79.24651
G1 X153.6 Y136.049 E79.25916
G1 X153.6 Y148.049 E79.65828
G1 X153.592 Y148.153 E79.66175
G1 X153.424 Y148.473 E79.67377
G1 X153.104 Y148.641 E79.68579
G1 X153 Y148.649 E79.68926
G1 X67 Y148.649 E82.54963
G1 F1500 E76.04963
G0 F6000 X67 Y148.659
G0 X66.446 Y148.602
G0 X66.443 Y149.267
G0 X65.58 Y149.469
G1 F1500 E82.54963
G0 F6000 X65.201 Y149.848
;TYPE:WALL-OUTER
G1 F1200 X154.8 Y149.849 E85.5297
G1 X154.8 Y70.151 E88.18047
G1 X67.136 Y70.151 E91.09619
G1 X67.085 Y70.231 E91.09934
G1 X66.826 Y70.249 E91.10798
G1 X65.201 Y70.25 E91.16202
G1 X65.201 Y71.221 E91.19432
G1 X65.2 Y126.051 E93.01797
G1 X65.201 Y149.848 E93.80947
G0 F6000 X65.602 Y149.447
;TYPE:WALL-INNER
G1 F1200 X67 Y149.449 E93.85596
G1 X154.4 Y149.449 E96.7629
G1 X154.4 Y70.551 E99.38706
G1 X67.281 Y70.551 E102.28465
G1 X67.254 Y70.593 E102.28631
G1 X67 Y70.649 E102.29496
G1 X65.602 Y70.651 E102.34146
G1 X65.602 Y71.221 E102.36041
G1 X65.6 Y72.049 E102.38795
